libs/ui/packages/crypto-icons/src/svg/FLDC.svg

<svg width="24" height="24" viewBox="0 0 24 24" fill="none">
<path fill-rule="evenodd" clip-rule="evenodd" d="M16.65 5.355C16.7175 5.4075 16.7783 5.4525 16.8345 5.50125C16.983 5.6325 17.1323 5.76375 17.277 5.8995C17.3918 6.009 17.5005 6.126 17.6108 6.24075C17.6198 6.24975 17.6273 6.27075 17.6243 6.28275C17.5568 6.54375 17.4548 6.78975 17.3183 7.01925C17.1983 7.22025 17.0603 7.40475 16.8998 7.5705C16.6823 7.7955 16.4385 7.983 16.1715 8.13675C16.0553 8.20425 15.936 8.26425 15.8168 8.32425C15.4365 8.517 15.0315 8.625 14.619 8.7015C14.3378 8.754 14.0535 8.7915 13.7708 8.8305C13.3988 8.8815 13.026 8.92275 12.6548 8.97675C12.1073 9.05625 11.571 9.18075 11.0625 9.417C10.503 9.67725 10.0373 10.0575 9.72078 10.6193C9.51003 10.9943 9.42453 11.403 9.42828 11.8365C9.43503 12.6667 9.71928 13.3845 10.2098 14.0228C10.5098 14.4128 10.8518 14.7592 11.2118 15.0863C11.4608 15.3135 11.715 15.534 11.9633 15.7612C12.2805 16.0537 12.5985 16.3455 12.8708 16.6868C13.0133 16.8668 13.1543 17.0513 13.2765 17.247C13.485 17.5815 13.6508 17.9408 13.7595 18.3255C13.8195 18.5355 13.8555 18.7493 13.872 18.9683C13.8959 19.2937 13.867 19.621 13.7865 19.9373C13.7543 20.067 13.7528 20.0693 13.6245 20.0925C13.4438 20.1263 13.263 20.1607 13.0815 20.19C12.9488 20.2103 12.8153 20.223 12.6818 20.238C12.6353 20.244 12.588 20.2463 12.5408 20.25L12.513 20.2493C12.5138 20.2388 12.513 20.2283 12.516 20.2192C12.5565 20.112 12.6015 20.0063 12.6398 19.8983C12.724 19.6662 12.7809 19.425 12.8093 19.1798C12.859 18.7485 12.7799 18.3122 12.582 17.9257C12.4443 17.665 12.2689 17.4259 12.0615 17.2162C11.7795 16.92 11.469 16.6605 11.1578 16.4017C10.638 15.969 10.1355 15.5168 9.67653 15.0128C9.39728 14.7085 9.14344 14.3819 8.91753 14.0363C8.6704 13.6635 8.47653 13.2581 8.34153 12.8317C8.13522 12.1688 8.1287 11.4598 8.32278 10.7933C8.43228 10.4077 8.58003 10.0455 8.80803 9.72075C9.10953 9.291 9.49878 8.97075 9.94503 8.72325C10.395 8.472 10.875 8.307 11.3693 8.18325C11.7668 8.08275 12.1695 8.00775 12.5753 7.95825C13.0328 7.90275 13.4903 7.85625 13.9478 7.8045C14.3213 7.7625 14.6925 7.71075 15.0533 7.59675C15.3818 7.49756 15.6836 7.32525 15.936 7.09275C16.1543 6.88875 16.3163 6.64425 16.4325 6.36375C16.5398 6.105 16.5923 5.832 16.6305 5.55525C16.6388 5.49375 16.6433 5.43075 16.6508 5.355H16.65ZM11.355 14.9745C11.5193 14.9422 11.6753 14.9145 11.8305 14.8807C12.2295 14.7922 12.6233 14.6858 12.993 14.4967C13.3569 14.3124 13.6804 14.0574 13.9448 13.7467C14.2148 13.4272 14.436 13.0755 14.5515 12.6585C14.624 12.3945 14.6493 12.1198 14.6265 11.847C14.5795 11.2917 14.3898 10.758 14.076 10.2975C13.8391 9.94915 13.5677 9.62552 13.266 9.3315C13.2135 9.27825 13.158 9.2265 13.1048 9.174C13.0973 9.1665 13.0913 9.1575 13.08 9.144L13.365 9.09975L13.9823 9.006C14.0903 8.9895 14.1983 8.9715 14.3063 8.95725C14.319 8.95575 14.337 8.97 14.3475 8.98125C14.5395 9.20475 14.736 9.42375 14.9205 9.654C15.1605 9.9525 15.363 10.2795 15.528 10.632C15.6743 10.9462 15.7815 11.2733 15.834 11.6198C15.8708 11.862 15.8865 12.1065 15.8618 12.351C15.7898 13.0358 15.5865 13.6695 15.1853 14.223C14.9363 14.5673 14.6295 14.8455 14.2838 15.078C13.8811 15.3437 13.443 15.5514 12.9825 15.6952C12.7853 15.7583 12.5858 15.8123 12.387 15.8678C12.3779 15.8698 12.3684 15.8699 12.3592 15.8679C12.35 15.866 12.3413 15.8621 12.3338 15.8565C12.0135 15.5715 11.6948 15.2843 11.376 14.9977C11.37 14.9932 11.3655 14.9865 11.3558 14.9752L11.355 14.9745ZM12.942 7.701L12.459 7.776L11.9115 7.86075C11.8478 7.87125 11.7833 7.88325 11.718 7.89C11.6941 7.89176 11.6705 7.88424 11.652 7.869C11.4412 7.67534 11.2454 7.46599 11.0663 7.24275C10.9688 7.119 10.8698 6.99525 10.7835 6.8625C10.491 6.4095 10.2623 5.92575 10.1655 5.382C10.079 4.91775 10.1042 4.43958 10.239 3.987C10.2473 3.957 10.2563 3.942 10.2915 3.93525C10.4925 3.90075 10.6913 3.85575 10.8915 3.82275C11.0565 3.7965 11.2245 3.783 11.391 3.7635L11.5275 3.75C11.5155 3.777 11.5088 3.795 11.5005 3.81075C11.3571 4.10445 11.2583 4.4179 11.2073 4.74075C11.1394 5.18191 11.2104 5.63327 11.4105 6.03225C11.5763 6.366 11.8028 6.64875 12.0593 6.90975C12.3263 7.17975 12.6158 7.42275 12.906 7.665C12.9165 7.674 12.9255 7.68375 12.9428 7.701H12.942ZM10.5615 16.167L10.242 16.2008C10.107 16.2157 9.97203 16.2262 9.83703 16.2472C9.62928 16.2795 9.42078 16.311 9.21528 16.3568C8.46303 16.5232 7.87728 16.9223 7.55778 17.6895C7.44076 17.9693 7.35352 18.2607 7.29753 18.5588C7.29528 18.5723 7.29078 18.5857 7.28478 18.6097C7.24203 18.5767 7.20228 18.5498 7.16628 18.5182C7.01628 18.3848 6.86703 18.2528 6.72078 18.1163C6.61503 18.0173 6.51528 17.9115 6.41028 17.811C6.37503 17.7772 6.36828 17.7435 6.38103 17.6955C6.52305 17.1825 6.80293 16.7182 7.19028 16.353C7.44051 16.1208 7.72046 15.9228 8.02278 15.7642C8.44728 15.5317 8.90103 15.3982 9.36603 15.2977C9.42003 15.2865 9.47553 15.2805 9.52803 15.2662C9.56103 15.2572 9.58278 15.2663 9.60603 15.288L10.0395 15.6847L10.5203 16.1265C10.5346 16.1394 10.5484 16.1529 10.5615 16.167ZM13.8068 12.8835C13.7693 12.8745 13.7318 12.8662 13.6958 12.855L11.1075 12.0458C10.7753 11.9423 10.4438 11.8395 10.1123 11.7353C9.98478 11.6955 9.91953 11.5912 9.92928 11.4847C9.94278 11.3273 9.99528 11.2178 10.143 11.1885C10.1838 11.1823 10.2254 11.1859 10.2645 11.199C10.545 11.2853 10.8248 11.3752 11.1045 11.4622L13.0853 12.0802L13.875 12.3255C13.9341 12.3418 13.9853 12.3788 14.0193 12.4297C14.0534 12.4807 14.0679 12.5422 14.0603 12.603C14.0385 12.7703 13.9388 12.879 13.8068 12.8835ZM8.33928 17.7555C8.36328 17.7615 8.39178 17.7668 8.41953 17.775L12.0233 18.9C12.147 18.939 12.2205 19.0425 12.2093 19.164C12.195 19.3275 12.1095 19.4363 11.9813 19.4475C11.9416 19.4494 11.9019 19.4438 11.8643 19.431C10.8705 19.122 9.87753 18.8115 8.88453 18.501C8.67753 18.4365 8.47053 18.3735 8.26428 18.3082C8.14878 18.2715 8.07228 18.1732 8.08053 18.0607C8.09253 17.9122 8.14728 17.799 8.28003 17.7653C8.29728 17.76 8.31603 17.7592 8.34003 17.7555H8.33928ZM15.9368 5.9325C15.9255 5.9655 15.9105 6.0345 15.8783 6.09225C15.8258 6.18675 15.7185 6.222 15.6128 6.189L13.875 5.646C13.2533 5.45175 12.6315 5.2575 12.009 5.06475C11.9033 5.03175 11.8245 4.9695 11.8125 4.8495C11.799 4.7145 11.8613 4.53375 12.0383 4.5135C12.0719 4.51126 12.1055 4.51586 12.1373 4.527L15.7493 5.65425C15.8693 5.69175 15.9368 5.78025 15.9368 5.9325ZM10.7505 10.7797C10.758 10.6245 10.8255 10.5075 10.947 10.4835C10.9948 10.475 11.0439 10.4781 11.0903 10.4925C11.4548 10.6035 11.8178 10.7182 12.1823 10.8322L13.5563 11.2597C13.6173 11.2767 13.6698 11.3157 13.7036 11.3692C13.7374 11.4227 13.7501 11.4869 13.7393 11.5493C13.7115 11.7218 13.6088 11.8267 13.4693 11.8117C13.398 11.8027 13.3283 11.7743 13.2578 11.7525L11.4713 11.1945L10.9328 11.0265C10.8788 11.0123 10.8313 10.9801 10.7981 10.9353C10.765 10.8904 10.7482 10.8355 10.7505 10.7797ZM10.5015 12.1973C10.5495 12.21 10.5855 12.2167 10.6208 12.2272L12.8858 12.9352C12.948 12.9548 13.011 12.9727 13.0733 12.993C13.212 13.038 13.2795 13.167 13.2435 13.314C13.2158 13.4303 13.1603 13.5195 13.0403 13.5397C13.001 13.5454 12.961 13.5421 12.9233 13.53C12.6353 13.4423 12.348 13.3515 12.0608 13.2615C11.526 13.095 10.992 12.9278 10.458 12.7628C10.359 12.732 10.284 12.6728 10.2675 12.564C10.2488 12.4433 10.2803 12.3315 10.377 12.2543C10.4145 12.225 10.464 12.2145 10.5015 12.198V12.1973ZM8.41428 19.0875C8.42478 18.9255 8.49528 18.7988 8.64153 18.783C8.67361 18.7798 8.70601 18.7831 8.73678 18.7927C9.56778 19.0515 10.3988 19.3103 11.2298 19.5705C11.3633 19.6125 11.4285 19.7445 11.3948 19.8855C11.3663 20.0055 11.3048 20.0895 11.187 20.1165C11.165 20.1227 11.1418 20.1232 11.1195 20.118L8.78928 19.3905C8.72103 19.3687 8.65203 19.3485 8.58303 19.326C8.53317 19.3094 8.48991 19.2773 8.45956 19.2344C8.42921 19.1915 8.41334 19.14 8.41428 19.0875ZM9.16203 17.0475C9.18453 17.0535 9.21453 17.0588 9.24378 17.0677L11.7045 17.8358C11.8245 17.8733 11.8995 17.9783 11.8905 18.0953C11.8778 18.2558 11.7953 18.366 11.6693 18.3818C11.6266 18.3852 11.5838 18.3798 11.5433 18.366C10.8795 18.1598 10.2158 17.9513 9.55278 17.7435C9.39453 17.6948 9.23553 17.646 9.07803 17.5958C8.96253 17.5583 8.89278 17.463 8.90253 17.3445C8.91453 17.19 8.97453 17.0895 9.10353 17.0557C9.12003 17.0512 9.13728 17.0513 9.16203 17.0483V17.0475ZM14.8785 6.876C14.7975 6.852 14.7188 6.83025 14.64 6.8055C13.8698 6.5655 13.0995 6.32325 12.3285 6.0825C12.1748 6.03375 12.1125 5.91 12.1545 5.7465C12.1808 5.64225 12.2348 5.56725 12.336 5.544C12.3807 5.53404 12.4271 5.53559 12.471 5.5485C13.1535 5.75925 13.8368 5.973 14.52 6.186C14.6663 6.231 14.8118 6.2775 14.958 6.32325C15.0136 6.34107 15.061 6.37793 15.092 6.42733C15.123 6.47672 15.1356 6.53549 15.1275 6.59325C15.1148 6.69225 15.087 6.78825 14.9925 6.837C14.9573 6.855 14.9175 6.8625 14.8785 6.876ZM15.6158 4.851C15.6015 4.95075 15.5745 5.0595 15.4605 5.115C15.4024 5.1409 15.3363 5.14279 15.2768 5.12025L13.503 4.56525L12.8108 4.34775C12.6653 4.30275 12.6023 4.17675 12.642 4.0215C12.669 3.91575 12.72 3.834 12.8258 3.8115C12.8722 3.80245 12.9201 3.80503 12.9653 3.819C13.4318 3.963 13.8975 4.11 14.3633 4.2555L15.432 4.5885C15.5483 4.62525 15.6165 4.716 15.6158 4.851Z" fill="#C40E09"/>
</svg>

<svg width="24" height="24" viewBox="0 0 24 24" fill="none"><path fill="#c40e09" fill-rule="evenodd" d="M16.65 5.355c.068.052.128.097.184.146q.224.196.443.398c.115.11.223.227.334.342.009.009.016.03.013.042q-.101.391-.306.736a3 3 0 0 1-.418.551 3.3 3.3 0 0 1-.728.567q-.176.099-.355.187c-.38.193-.786.301-1.198.377-.281.053-.566.09-.848.13-.372.05-.745.092-1.116.146-.548.08-1.084.204-1.592.44-.56.26-1.026.64-1.342 1.202a2.4 2.4 0 0 0-.293 1.217c.007.83.291 1.548.782 2.187.3.39.642.736 1.002 1.063.249.227.503.448.751.675.318.293.636.585.908.926.142.18.283.364.406.56.208.334.374.694.482 1.079q.089.314.113.642a3 3 0 0 1-.085.97c-.033.129-.034.131-.163.155-.18.033-.361.068-.543.097-.132.02-.266.033-.4.048q-.07.008-.14.012h-.028q0-.017.003-.03c.04-.108.085-.214.124-.322a3.2 3.2 0 0 0 .17-.718 2.2 2.2 0 0 0-.228-1.254q-.208-.393-.52-.71a10 10 0 0 0-.904-.814 15 15 0 0 1-1.481-1.39 7.6 7.6 0 0 1-.76-.976 4.8 4.8 0 0 1-.575-1.204 3.53 3.53 0 0 1-.02-2.039c.11-.385.258-.747.486-1.072.302-.43.69-.75 1.137-.998a5.8 5.8 0 0 1 1.424-.54q.597-.15 1.206-.225c.458-.055.915-.102 1.373-.154a6 6 0 0 0 1.105-.207c.329-.1.63-.272.883-.504.218-.204.38-.449.497-.73.107-.258.16-.531.198-.808.008-.061.012-.124.02-.2zm-5.295 9.62c.164-.033.32-.06.476-.094.399-.089.792-.195 1.162-.384a3.1 3.1 0 0 0 .952-.75c.27-.32.491-.671.607-1.088.072-.264.097-.54.075-.812a3.24 3.24 0 0 0-.551-1.55 6.3 6.3 0 0 0-.81-.966l-.161-.157q-.01-.01-.025-.03l.285-.044.617-.094q.162-.026.324-.049c.013-.001.031.013.042.024.191.224.388.443.572.673q.36.45.608.978c.146.314.253.641.306.988.037.242.053.487.028.731-.072.685-.276 1.318-.677 1.872a3.5 3.5 0 0 1-.901.855 5.2 5.2 0 0 1-1.302.617c-.197.063-.396.117-.595.173a.07.07 0 0 1-.053-.011q-.48-.429-.958-.86-.007-.005-.02-.022zM12.942 7.7l-.483.075-.547.085q-.096.017-.194.029a.1.1 0 0 1-.066-.021 6 6 0 0 1-.586-.626c-.097-.124-.196-.248-.283-.38-.292-.453-.52-.937-.617-1.481a3 3 0 0 1 .073-1.395c.008-.03.017-.045.052-.052.201-.034.4-.08.6-.112.165-.026.334-.04.5-.06l.136-.013q-.015.039-.026.06a3.3 3.3 0 0 0-.294.93c-.068.442.003.893.204 1.292.165.334.392.617.648.878.267.27.557.513.847.755zm-2.38 8.466-.32.034c-.135.015-.27.025-.405.046-.208.032-.416.064-.622.11-.752.166-1.338.565-1.657 1.332a4.3 4.3 0 0 0-.26.87l-.013.05q-.065-.046-.119-.09-.226-.2-.445-.403c-.106-.099-.206-.204-.31-.305-.036-.034-.043-.067-.03-.116.142-.512.422-.977.81-1.342q.377-.35.832-.589c.424-.232.878-.366 1.343-.466.054-.011.11-.018.162-.032.033-.009.055 0 .078.022l.434.397.48.441zm3.245-3.284q-.057-.012-.111-.028l-2.588-.81-.996-.31c-.127-.04-.192-.144-.183-.25.014-.158.066-.267.214-.296a.3.3 0 0 1 .121.01q.42.13.84.263l1.981.618.79.245a.255.255 0 0 1 .185.278c-.021.167-.121.276-.253.28m-5.468 4.873q.038.007.08.019l3.604 1.125c.124.039.197.143.186.264-.014.163-.1.272-.228.284a.3.3 0 0 1-.117-.017l-2.98-.93-.62-.193c-.115-.037-.192-.135-.183-.247.012-.149.066-.262.199-.296q.025-.006.06-.01m7.598-11.823c-.011.032-.026.102-.059.16-.052.094-.16.129-.265.096l-1.738-.543-1.866-.581c-.106-.033-.184-.096-.197-.216-.013-.135.05-.315.226-.336a.3.3 0 0 1 .1.014l3.611 1.127c.12.038.188.126.188.279M10.75 10.78c.007-.155.075-.272.196-.296a.3.3 0 0 1 .143.008q.547.168 1.092.34l1.374.428a.255.255 0 0 1 .183.29c-.028.172-.13.277-.27.262-.071-.01-.14-.038-.211-.06l-1.787-.558-.538-.168a.245.245 0 0 1-.182-.246m-.25 1.417c.049.013.085.02.12.03l2.265.708.187.058c.139.045.207.174.17.321-.027.116-.083.206-.203.226a.3.3 0 0 1-.117-.01q-.432-.133-.862-.268l-1.603-.5c-.099-.03-.174-.09-.19-.198a.31.31 0 0 1 .109-.31c.037-.029.087-.04.124-.056m-2.087 6.89c.01-.162.081-.288.228-.304a.2.2 0 0 1 .095.01l2.493.777c.133.043.198.174.165.316-.029.12-.09.204-.208.23a.14.14 0 0 1-.067.002l-2.33-.727-.207-.065a.25.25 0 0 1-.169-.239m.748-2.04.082.02 2.46.769c.12.037.195.142.186.26-.012.16-.095.27-.22.286a.3.3 0 0 1-.127-.016l-1.99-.622-.475-.148c-.115-.038-.185-.133-.175-.252.012-.154.072-.255.2-.288q.024-.006.059-.008m5.717-10.171-.239-.07-2.312-.724c-.153-.048-.215-.172-.173-.335.026-.105.08-.18.181-.203a.3.3 0 0 1 .135.005q1.024.316 2.049.637l.438.137a.25.25 0 0 1 .17.27c-.013.1-.041.195-.136.244-.035.018-.075.026-.114.039m.737-2.025c-.014.1-.041.208-.155.264a.24.24 0 0 1-.184.005l-1.774-.555-.692-.217c-.146-.045-.209-.171-.169-.327.027-.105.078-.187.184-.21a.3.3 0 0 1 .14.008q.7.217 1.397.436l1.069.333c.116.037.184.128.184.263" clip-rule="evenodd"/></svg>
